dist/img/svg/ic_arr-down.svg

<svg width="8" height="5" viewBox="0 0 8 5" fill="none" xmlns="http://www.w3.org/2000/svg">
<path d="M8 0.713058C8 0.64433 7.96793 0.56701 7.91984 0.515464L7.51904 0.0859103C7.47094 0.0343641 7.3988 0 7.33467 0C7.27054 0 7.1984 0.0343641 7.1503 0.0859103L4 3.4622L0.849699 0.0859103C0.801603 0.0343641 0.729459 0 0.665331 0C0.593186 0 0.529058 0.0343641 0.480962 0.0859103L0.0801603 0.515464C0.0320641 0.56701 0 0.64433 0 0.713058C0 0.781787 0.0320641 0.859106 0.0801603 0.910653L3.81563 4.91409C3.86373 4.96564 3.93587 5 4 5C4.06413 5 4.13627 4.96564 4.18437 4.91409L7.91984 0.910653C7.96793 0.859106 8 0.781787 8 0.713058Z" fill="black"/>
</svg>

<svg width="8" height="5" viewBox="0 0 8 5" fill="none" xmlns="http://www.w3.org/2000/svg"><path d="M8 .713a.307.307 0 00-.08-.198l-.401-.43A.268.268 0 007.335 0a.268.268 0 00-.185.086L4 3.462.85.086A.268.268 0 00.665 0a.253.253 0 00-.184.086l-.4.43A.307.307 0 000 .712c0 .07.032.148.08.199l3.736 4.003c.048.052.12.086.184.086a.268.268 0 00.184-.086L7.92.911A.307.307 0 008 .713z" fill="#000"/></svg>
